src/icons/book.svg

<svg width="16" height="16" viewBox="0 0 16 16" fill="none" xmlns="http://www.w3.org/2000/svg">
<path fill-rule="evenodd" clip-rule="evenodd" d="M14.5 2H9L8.65002 2.15002L8 2.79004L7.34998 2.15002L7 2H1.5L1 2.5V12.5L1.5 13H6.78998L7.65002 13.85H8.34998L9.21002 13H14.5L15 12.5V2.5L14.5 2ZM7.5 12.3199L7.32001 12.15L7 12H2V3H6.78998L7.53003 3.73999L7.5 12.3199ZM14 12H9L8.65002 12.15L8.51001 12.28V3.69995L9.21002 3H14V12ZM6 5H3V6H6V5ZM6 9H3V10H6V9ZM3 7H6V8H3V7ZM13 5H10V6H13V5ZM10 7H13V8H10V7ZM10 9H13V10H10V9Z" fill="#C5C5C5"/>
</svg>

<svg width="16" height="16" xmlns="http://www.w3.org/2000/svg"><path fill-rule="evenodd" clip-rule="evenodd" d="M14.5 2H9l-.35.15-.65.64-.65-.64L7 2H1.5l-.5.5v10l.5.5h5.29l.86.85h.7l.86-.85h5.29l.5-.5v-10l-.5-.5zm-7 10.32l-.18-.17L7 12H2V3h4.79l.74.74-.03 8.58zM14 12H9l-.35.15-.14.13V3.7l.7-.7H14v9zM6 5H3v1h3V5zm0 4H3v1h3V9zM3 7h3v1H3V7zm10-2h-3v1h3V5zm-3 2h3v1h-3V7zm0 2h3v1h-3V9z"/></svg>
